icons/lines/flash.svg

<svg xmlns="http://www.w3.org/2000/svg" width="24" height="24" viewBox="0 0 24 24" fill="none" stroke="currentColor" stroke-width="2" stroke-linecap="round" stroke-linejoin="round" >
  <path d="M9.31993 13.28H12.4099V20.48C12.4099 21.54 13.7299 22.04 14.4299 21.24L21.9999 12.64C22.6599 11.89 22.1299 10.72 21.1299 10.72H18.0399V3.52003C18.0399 2.46003 16.7199 1.96003 16.0199 2.76003L8.44994 11.36C7.79994 12.11 8.32993 13.28 9.31993 13.28Z" stroke-miterlimit="10"/>
  <path d="M8.5 4H1.5" stroke-miterlimit="10"/>
  <path d="M7.5 20H1.5" stroke-miterlimit="10"/>
  <path d="M4.5 12H1.5" stroke-miterlimit="10"/>
  </svg>

<svg xmlns="http://www.w3.org/2000/svg" width="24" height="24" viewBox="0 0 24 24" fill="none" stroke="currentColor" stroke-width="2" stroke-linecap="round" stroke-linejoin="round">
  <path d="M12.41 13.28v7.2c0 1.06 1.32 1.56 2.02.76l7.57-8.6a1.155 1.155 0 0 0-.87-1.92h-3.09v-7.2c0-1.06-1.32-1.56-2.02-.76l-7.57 8.6a1.164 1.164 0 0 0 .87 1.92z" />
  <path d="M4.5 12h-3" />
  <path d="M7.5 20h-6" />
  <path d="M8.5 4h-7" />
</svg>
